icons/svgs/sync-outline.svg

<svg width="24" height="24" viewBox="0 0 24 24" fill="none" xmlns="http://www.w3.org/2000/svg">
<path d="M21.375 9.8125C21.375 10.3594 20.9453 10.75 20.4375 10.75H16.0625H14.8125C14.2656 10.75 13.875 10.3594 13.875 9.8125C13.875 9.30469 14.2656 8.875 14.8125 8.875H16.0625H18.1719L16.1406 6.84375C15.0078 5.75 13.5234 5.125 12 5.125C9.14844 5.125 6.6875 6.88281 5.67188 9.34375C5.4375 9.8125 4.89062 10.0078 4.42188 9.8125C3.95312 9.61719 3.71875 9.07031 3.91406 8.60156C5.24219 5.47656 8.36719 3.25 12 3.25C14.0312 3.25 15.9844 4.07031 17.4297 5.51562L19.5 7.58594V5.4375V4.1875C19.5 3.67969 19.8906 3.25 20.4375 3.25C20.9453 3.25 21.375 3.67969 21.375 4.1875V9.8125ZM3.5625 13.25H7.9375C8.44531 13.25 8.875 13.6797 8.875 14.1875C8.875 14.7344 8.44531 15.125 7.9375 15.125H5.78906L7.85938 17.1953C8.95312 18.2891 10.4375 18.875 12 18.875C14.8125 18.875 17.2734 17.1953 18.2891 14.7344C18.5234 14.2266 19.0703 14.0312 19.5391 14.2266C20.0078 14.4219 20.2422 14.9688 20.0469 15.4766C18.6797 18.5625 15.5938 20.75 12 20.75C9.92969 20.75 7.97656 19.9688 6.53125 18.5234L4.5 16.4531V18.5625C4.5 19.1094 4.07031 19.5 3.5625 19.5C3.01562 19.5 2.625 19.1094 2.625 18.5625V14.1875C2.625 13.6797 3.01562 13.25 3.5625 13.25Z" fill="black"/>
</svg>

<svg xmlns="http://www.w3.org/2000/svg" width="24" height="24" fill="currentColor" class="icon-sync-outline" viewBox="0 0 24 24">
  <mask id="a" width="20" height="18" x="2" y="3" maskUnits="userSpaceOnUse" style="mask-type:alpha">
    <path d="M21.375 9.813c0 .546-.43.937-.937.937h-5.625c-.547 0-.938-.39-.938-.937 0-.508.39-.938.938-.938h3.359L16.14 6.844C15.008 5.75 13.523 5.125 12 5.125a6.86 6.86 0 0 0-6.328 4.219c-.234.469-.781.664-1.25.469a.935.935 0 0 1-.508-1.211C5.242 5.477 8.367 3.25 12 3.25a7.7 7.7 0 0 1 5.43 2.266l2.07 2.07V4.187c0-.507.39-.937.938-.937a.95.95 0 0 1 .937.938zM3.563 13.25h4.374a.95.95 0 0 1 .938.938c0 .546-.43.937-.937.937H5.789l2.07 2.07c1.094 1.094 2.579 1.68 4.141 1.68 2.813 0 5.273-1.68 6.29-4.14.233-.508.78-.704 1.25-.508.468.195.702.742.507 1.25C18.68 18.562 15.594 20.75 12 20.75c-2.07 0-4.023-.781-5.469-2.227L4.5 16.453v2.11c0 .546-.43.937-.937.937-.547 0-.938-.39-.938-.937v-4.375c0-.508.39-.938.938-.938"/>
  </mask>
  <g mask="url(#a)">
    <path d="M0 0h24v24H0z"/>
  </g>
</svg>
